X: 52
T: PEERIE HOOSE AHINT DA BURN
R: reel
B: Haand me doon da fiddle, 1979
Z: 2012 John Chambers <jc:trillian.mit.edu>
M: C
L: 1/8
K: G
D |:\
GABc dBG2 | (uga)gf e2dc | (uBG)Bd cABG | ABAG TE2D2 |
GABc dBG2 | (ga)gf e2dc | (uBG)Bd cAFA |[1 G2[GB][B-G-] [B3G3]D :|[2 G2[BG][B-G-] [B3G3]g |]
Tfefg afd2 | (uga)gf e2dc | BGBd cABG | ABAG E2eg |
fefg afd2 | (uga)gf e2dc | BGBd cAFA | G2GG- G2g2 |
fefg afd2 | (ufa)gf e2dc | BGBd cABG | ABAG E2D2 |
GABc dBG2 | (uga)gf e2dc | BGBd cAFA | [B2G2][BG][B-G-] [B4G4] |]
%%begintext align
In Waas dis t\"un wis caaed "Hae ye ony moorit oo?" an in Eshaness
an Nor Yell it wis caaed "Da Doonfaa' o' Paris".  Da Peerie
hoos wis what some auld folk caaed an ootside water closet.  Da
t\"un is really a variant o' an English t\"un caaed "Fay's Hornpipe"
bit he's been played aa ower Shetland fir mony a year.
%%endtext

%%sep 2 1 500
%%sep 1 1 500

